packages/core/src/svgs/abl.svg

<svg width="24" height="24" viewBox="0 0 24 24" fill="none" xmlns="http://www.w3.org/2000/svg">
<g clip-path="url(#clip0_31_5518)">
<path d="M0 0H24V24H0V0Z" fill="url(#paint0_linear_31_5518)"/>
<path d="M12.6429 7.71533H11.3572L7.71436 16.285H9.00007L9.99607 14.143H13.9689L15.0001 16.285H16.2858L12.6429 7.71533ZM13.4799 12.8573H10.4872L12.0001 9.42876L13.4804 12.8573H13.4799Z" fill="white"/>
<path d="M18.4285 16.5409C17.5418 16.7098 16.7215 17.5369 16.5535 18.4288H7.44639C7.27839 17.5374 6.45811 16.7102 5.57139 16.5409V7.4595C6.45811 7.29064 7.27839 6.4635 7.44639 5.57164H16.5535C16.7211 6.46307 17.5418 7.29021 18.4285 7.4595V16.5409ZM18.7178 6.94478C17.8067 6.94478 17.0657 6.19907 17.0657 5.28278C17.0657 5.26449 17.0622 5.24637 17.0552 5.22945C17.0483 5.21253 17.0381 5.19714 17.0252 5.18417C17.0123 5.17119 16.997 5.16088 16.9801 5.15383C16.9632 5.14678 16.9451 5.14312 16.9268 5.14307H7.07354C7.05521 5.14307 7.03706 5.14668 7.02014 5.15371C7.00321 5.16074 6.98783 5.17103 6.9749 5.18401C6.96196 5.19699 6.9517 5.2124 6.94473 5.22935C6.93776 5.2463 6.9342 5.26445 6.93425 5.28278C6.93425 6.19907 6.19282 6.94478 5.28211 6.94478C5.26378 6.94478 5.24563 6.9484 5.22871 6.95542C5.21178 6.96245 5.19641 6.97275 5.18347 6.98573C5.17053 6.99871 5.16028 7.01411 5.1533 7.03106C5.14633 7.04801 5.14277 7.06617 5.14282 7.0845V16.9159C5.14282 16.9931 5.20497 17.0561 5.28211 17.0561C6.19325 17.0561 6.93425 17.8014 6.93425 18.7176C6.93425 18.7948 6.99639 18.8574 7.07354 18.8574H16.9264C17.0035 18.8574 17.0657 18.7948 17.0657 18.7176C17.0657 17.8014 17.8071 17.0561 18.7178 17.0561C18.795 17.0561 18.8571 16.9935 18.8571 16.9159V7.0845C18.8572 7.06617 18.8536 7.04801 18.8466 7.03106C18.8397 7.01411 18.8294 6.99871 18.8165 6.98573C18.8035 6.97275 18.7882 6.96245 18.7712 6.95542C18.7543 6.9484 18.7362 6.94478 18.7178 6.94478Z" fill="white"/>
</g>
<defs>
<linearGradient id="paint0_linear_31_5518" x1="4.46486" y1="4.16229" x2="29.2059" y2="32.5787" gradientUnits="userSpaceOnUse">
<stop stop-color="#1A1E21"/>
<stop offset="1" stop-color="#06060A"/>
</linearGradient>
<clipPath id="clip0_31_5518">
<rect width="24" height="24" fill="white"/>
</clipPath>
</defs>
</svg>

<svg xmlns="http://www.w3.org/2000/svg" width="24" height="24" fill="none" viewBox="0 0 24 24"><g clip-path="url(#a)"><path fill="url(#b)" d="M0 0h24v24H0z"/><path fill="#fff" d="M12.643 7.715h-1.286l-3.643 8.57H9l.996-2.142h3.973L15 16.285h1.286zm.837 5.142h-2.993L12 9.43z"/><path fill="#fff" d="M18.429 16.54c-.887.17-1.707.997-1.875 1.889H7.445c-.168-.892-.988-1.719-1.875-1.888V7.46c.887-.17 1.707-.997 1.875-1.888h9.107c.168.891.989 1.718 1.875 1.888zm.289-9.595a1.66 1.66 0 0 1-1.652-1.662.14.14 0 0 0-.14-.14H7.075a.14.14 0 0 0-.14.14 1.66 1.66 0 0 1-1.652 1.662.14.14 0 0 0-.14.14v9.83c0 .078.063.141.14.141.911 0 1.652.745 1.652 1.662 0 .077.062.14.14.14h9.852a.14.14 0 0 0 .14-.14c0-.917.741-1.662 1.652-1.662a.14.14 0 0 0 .14-.14V7.085a.14.14 0 0 0-.087-.13.14.14 0 0 0-.053-.01"/></g><defs><linearGradient id="b" x1="4.465" x2="29.206" y1="4.162" y2="32.579" gradientUnits="userSpaceOnUse"><stop stop-color="#1A1E21"/><stop offset="1" stop-color="#06060A"/></linearGradient><clipPath id="a"><path fill="#fff" d="M0 0h24v24H0z"/></clipPath></defs></svg>
